X: 143
T:Muiñeira
M:6/8
L:1/8
Q:200
C:Trad
R:Muiñeira
K:C
CDE |: CDE CDE | F2D B,CD | B,CD |B,CD |E2C {G}CDE|
CDE CDE |F3 {c}FGF |EFE DED | {B,}C3 {G}CDE :| |: F3 {c}FGF |
E3 {G}EFE | D2 {G}D {G}"~"DCD |"~"E2C {G}CDE |F3 {c}FGF |E3 {G}EFE |
D2{G}D {G}"~"DED |1 {B,}C3 {G}CDE :|2 {B,}C3

